Numix-Light/16/status/indicator-keyboard-Et-2.svg

<?xml version="1.0" encoding="UTF-8" standalone="no"?>
<svg
   xmlns:dc="http://purl.org/dc/elements/1.1/"
   xmlns:cc="http://creativecommons.org/ns#"
   xmlns:rdf="http://www.w3.org/1999/02/22-rdf-syntax-ns#"
   xmlns:svg="http://www.w3.org/2000/svg"
   xmlns="http://www.w3.org/2000/svg"
   xmlns:sodipodi="http://sodipodi.sourceforge.net/DTD/sodipodi-0.dtd"
   xmlns:inkscape="http://www.inkscape.org/namespaces/inkscape"
   viewBox="0 0 16 16"
   id="svg2"
   version="1.1"
   inkscape:version="0.91 r13725"
   sodipodi:docname="indicator-keyboard-Et-2.svg">
  <metadata
     id="metadata14">
    <rdf:RDF>
      <cc:Work
         rdf:about="">
        <dc:format>image/svg+xml</dc:format>
        <dc:type
           rdf:resource="http://purl.org/dc/dcmitype/StillImage" />
      </cc:Work>
    </rdf:RDF>
  </metadata>
  <defs
     id="defs12" />
  <sodipodi:namedview
     pagecolor="#ffffff"
     bordercolor="#666666"
     borderopacity="1"
     objecttolerance="10"
     gridtolerance="10"
     guidetolerance="10"
     inkscape:pageopacity="0"
     inkscape:pageshadow="2"
     inkscape:window-width="459"
     inkscape:window-height="369"
     id="namedview10"
     showgrid="false"
     inkscape:zoom="14.75"
     inkscape:cx="8"
     inkscape:cy="8"
     inkscape:window-x="65"
     inkscape:window-y="24"
     inkscape:window-maximized="0"
     inkscape:current-layer="svg2" />
  <path
     style="fill:#353535;fill-opacity:1"
     d="M 1.5996094 0 C 0.71320937 2.9605947e-16 0 0.71320937 0 1.5996094 L 0 14.400391 C 2.9605947e-16 15.286791 0.71320937 16 1.5996094 16 L 14.400391 16 C 15.286791 16 16 15.286791 16 14.400391 L 16 1.5996094 C 16 0.71320937 15.286791 0 14.400391 0 L 1.5996094 0 z M 2.765625 4.859375 L 6.3652344 4.859375 L 6.3652344 5.390625 L 3.3769531 5.390625 L 3.3769531 7.5585938 L 6.0410156 7.5585938 L 6.0410156 8.0800781 L 3.3769531 8.0800781 L 3.3769531 10.564453 L 6.5996094 10.564453 L 6.5996094 11.095703 L 2.765625 11.095703 L 2.765625 4.859375 z M 8.2695312 4.9667969 L 8.2695312 6.4433594 L 10.123047 6.4433594 L 10.123047 6.9375 L 8.2695312 6.9375 L 8.2695312 9.4121094 C 8.2695312 9.6761094 8.2900312 9.8925467 8.3320312 10.060547 C 8.3800313 10.222547 8.44725 10.349453 8.53125 10.439453 C 8.61525 10.529453 8.7159375 10.589141 8.8359375 10.619141 C 8.9559375 10.649141 9.0884219 10.664062 9.2324219 10.664062 C 9.4784219 10.664062 9.6761719 10.636031 9.8261719 10.582031 C 9.9761716 10.522031 10.093734 10.469875 10.177734 10.421875 L 10.322266 10.90625 C 10.238266 10.96025 10.090859 11.023703 9.8808594 11.095703 C 9.6708594 11.161703 9.4432656 11.195313 9.1972656 11.195312 C 8.9092656 11.195312 8.66675 11.159891 8.46875 11.087891 C 8.27675 11.009891 8.12 10.894141 8 10.744141 C 7.886 10.588141 7.8058125 10.397922 7.7578125 10.169922 C 7.7098125 9.9419217 7.6855469 9.671375 7.6855469 9.359375 L 7.6855469 5.0742188 L 8.2695312 4.9667969 z M 11.908203 8.7539062 C 12.302103 8.7539062 12.597975 8.851875 12.796875 9.046875 C 12.995775 9.237975 13.095703 9.5044563 13.095703 9.8476562 C 13.095703 9.9997563 13.068272 10.14475 13.013672 10.28125 C 12.959072 10.41385 12.884616 10.543169 12.791016 10.667969 C 12.701316 10.792769 12.597469 10.912297 12.480469 11.029297 C 12.363469 11.146297 12.243947 11.263859 12.123047 11.380859 C 12.021647 11.478359 11.923672 11.578288 11.826172 11.679688 C 11.732572 11.777188 11.646359 11.877116 11.568359 11.978516 C 11.494259 12.076016 11.433519 12.172031 11.386719 12.269531 C 11.343819 12.363131 11.322266 12.457181 11.322266 12.550781 L 11.322266 12.5625 L 13.234375 12.5625 L 13.234375 12.896484 L 10.900391 12.896484 C 10.900391 12.888684 10.898465 12.874969 10.894531 12.855469 L 10.894531 12.755859 C 10.894531 12.572559 10.927841 12.402094 10.994141 12.246094 C 11.060441 12.086194 11.144694 11.937275 11.246094 11.796875 C 11.351394 11.656475 11.466997 11.525197 11.591797 11.404297 C 11.720497 11.283397 11.843938 11.165834 11.960938 11.052734 C 12.058437 10.959134 12.148575 10.869003 12.234375 10.783203 C 12.324075 10.693503 12.40245 10.603366 12.46875 10.509766 C 12.53505 10.416166 12.587953 10.316237 12.626953 10.210938 C 12.665953 10.105638 12.685547 9.9900344 12.685547 9.8652344 C 12.685547 9.5922344 12.611091 9.39825 12.462891 9.28125 C 12.318591 9.16035 12.136363 9.0996094 11.914062 9.0996094 C 11.789262 9.0996094 11.677578 9.1152844 11.580078 9.1464844 C 11.482578 9.1776844 11.396366 9.2149125 11.322266 9.2578125 C 11.252066 9.2968125 11.191325 9.3379594 11.140625 9.3808594 C 11.089925 9.4237594 11.052697 9.4570688 11.029297 9.4804688 L 10.830078 9.2167969 C 10.853478 9.1894969 10.894625 9.1503094 10.953125 9.0996094 C 11.015525 9.0450094 11.091941 8.9921062 11.181641 8.9414062 C 11.275241 8.8907063 11.383006 8.8476 11.503906 8.8125 C 11.624806 8.7735 11.760003 8.7539063 11.908203 8.7539062 z "
     id="path4" />
</svg>

<svg xmlns="http://www.w3.org/2000/svg" viewBox="0 0 16 16">
 <path d="m 1.6 0 c -0.886 0 -1.6 0.713 -1.6 1.6 l 0 12.801 c 0 0.886 0.713 1.6 1.6 1.6 l 12.801 0 c 0.886 0 1.6 -0.713 1.6 -1.6 l 0 -12.801 c 0 -0.886 -0.713 -1.6 -1.6 -1.6 l -12.801 0 z m 1.166 4.859 l 3.6 0 l 0 0.531 l -2.988 0 l 0 2.168 l 2.664 0 l 0 0.521 l -2.664 0 l 0 2.484 l 3.223 0 l 0 0.531 l -3.834 0 l 0 -6.236 z m 5.504 0.107 l 0 1.477 l 1.854 0 l 0 0.494 l -1.854 0 l 0 2.475 c 0 0.264 0.021 0.48 0.063 0.648 c 0.048 0.162 0.115 0.289 0.199 0.379 c 0.084 0.09 0.185 0.15 0.305 0.18 c 0.12 0.03 0.252 0.045 0.396 0.045 c 0.246 0 0.444 -0.028 0.594 -0.082 c 0.15 -0.06 0.268 -0.112 0.352 -0.16 l 0.145 0.484 c -0.084 0.054 -0.231 0.117 -0.441 0.189 c -0.21 0.066 -0.438 0.1 -0.684 0.1 c -0.288 0 -0.531 -0.035 -0.729 -0.107 c -0.192 -0.078 -0.349 -0.194 -0.469 -0.344 c -0.114 -0.156 -0.194 -0.346 -0.242 -0.574 c -0.048 -0.228 -0.072 -0.499 -0.072 -0.811 l 0 -4.285 l 0.584 -0.107 z m 3.639 3.787 c 0.394 0 0.69 0.098 0.889 0.293 c 0.199 0.191 0.299 0.458 0.299 0.801 c 0 0.152 -0.027 0.297 -0.082 0.434 c -0.055 0.133 -0.129 0.262 -0.223 0.387 c -0.09 0.125 -0.194 0.244 -0.311 0.361 c -0.117 0.117 -0.237 0.235 -0.357 0.352 c -0.101 0.098 -0.199 0.197 -0.297 0.299 c -0.094 0.098 -0.18 0.197 -0.258 0.299 c -0.074 0.097 -0.135 0.194 -0.182 0.291 c -0.043 0.094 -0.064 0.188 -0.064 0.281 l 0 0.012 l 1.912 0 l 0 0.334 l -2.334 0 c 0 -0.008 -0.002 -0.022 -0.006 -0.041 l 0 -0.1 c 0 -0.183 0.033 -0.354 0.1 -0.51 c 0.066 -0.16 0.151 -0.309 0.252 -0.449 c 0.105 -0.14 0.221 -0.272 0.346 -0.393 c 0.129 -0.121 0.252 -0.238 0.369 -0.352 c 0.097 -0.094 0.188 -0.184 0.273 -0.27 c 0.09 -0.09 0.168 -0.18 0.234 -0.273 c 0.066 -0.094 0.119 -0.194 0.158 -0.299 c 0.039 -0.105 0.059 -0.221 0.059 -0.346 c 0 -0.273 -0.074 -0.467 -0.223 -0.584 c -0.144 -0.121 -0.327 -0.182 -0.549 -0.182 c -0.125 0 -0.236 0.016 -0.334 0.047 c -0.098 0.031 -0.184 0.068 -0.258 0.111 c -0.07 0.039 -0.131 0.08 -0.182 0.123 c -0.051 0.043 -0.088 0.076 -0.111 0.1 l -0.199 -0.264 c 0.023 -0.027 0.065 -0.066 0.123 -0.117 c 0.062 -0.055 0.139 -0.108 0.229 -0.158 c 0.094 -0.051 0.201 -0.094 0.322 -0.129 c 0.121 -0.039 0.256 -0.059 0.404 -0.059 z" style="fill:#353535;fill-opacity:1"/>
</svg>
